www/images/view.svg

<svg fill="none" height="75" viewBox="0 0 75 75" width="75" xmlns="http://www.w3.org/2000/svg"><path d="m63.9422 36.9085c-.0548-.2759-.1534-.5474-.3069-.7945-2.115-3.4255-4.9269-6.3079-8.2013-8.6121-1.4948-1.055-3.1013-1.9533-4.7736-2.6927-1.933-.8563-3.9056-1.5626-5.9659-2.0261-4.2783-.9601-8.653-1.0197-12.9706-.2759-1.8783.3267-3.7302.8343-5.5121 1.5229-1.9112.7394-3.7698 1.6223-5.5056 2.7192-3.3972 2.1519-6.3167 4.9439-8.6093 8.2589-.2454.3576-.4865.7284-.7188 1.097-.5041.8166-.5041 1.9709 0 2.7854 2.115 3.4254 4.9269 6.3079 8.2013 8.6075 1.4948 1.055 3.1013 1.9533 4.7736 2.6927 1.9331.8563 3.9056 1.5626 5.9659 2.0261 4.2783.9601 8.653 1.0197 12.9706.2759 1.8783-.3267 3.7303-.8343 5.5121-1.5229 1.9112-.7394 3.7698-1.6223 5.5057-2.7192 3.3971-2.1519 6.3166-4.9439 8.6092-8.2589.1797-.2649.355-.5297.526-.799.0263-.0398.0614-.0773.0833-.1148.1644-.2472.3112-.5297.3835-.8387.0044-.0221.0044-.0442.0044-.0618.1074-.415.1118-.8674.0285-1.2691zm-31.0609-7.6764c.778-.7835 1.749-1.3507 2.7944-1.6553.5918-.1766 1.2098-.2649 1.8301-.2715.3025 0 .5742.0772.811.2207.4865.2913.8065.8343.8328 1.4346.0395.9006-.7846 1.651-1.6438 1.6554-.149 0-.2959.011-.4383.0221-.2784.0551-.5523.1258-.8219.2251-.2148.1059-.4208.2207-.6246.3531-.0329.0221-.0702.0486-.1052.0707-.1052.0927-.2083.1876-.3113.2869-.0986.0993-.1928.203-.2849.309-.0263.0331-.0482.0706-.0701.1059-.1315.1987-.2455.4083-.3507.6224-.0986.2715-.1753.5474-.2236.8344-.0109.15-.0219.2913-.0219.4414-.0044.927-.7452 1.6156-1.6438 1.6553-.8832.0398-1.6482-.7901-1.6438-1.6553.0132-1.7304.6926-3.4233 1.9156-4.6548zm25.0029 8.4267c-.1425.1877-.2849.3708-.4274.5562.0701-.0926.1359-.1809.2082-.2758-1.2449 1.5714-2.6629 2.9906-4.2234 4.2442.092-.0706.1863-.1368.2783-.2096-.1863.1434-.3726.2869-.5523.4304.0921-.0707.1863-.1435.274-.2208-1.7271 1.3022-3.5988 2.4014-5.578 3.271.1052-.0441.2083-.0883.3113-.1324-.2192.0927-.4384.1876-.6532.2759.114-.0486.2236-.0993.3397-.1501-2.1588.8828-4.4097 1.4964-6.7178 1.8429.1096-.011.2192-.0265.3244-.0397-.2411.0331-.4866.0662-.7277.0993.1359-.0176.2696-.0397.4055-.0552-2.4153.2914-4.8613.2914-7.2767 0 .1359.0221.2696.0398.4055.0552-.2411-.0331-.4866-.0662-.7277-.0993.1096.0177.2148.0265.3244.0397-2.3013-.3421-4.5588-.9601-6.7178-1.8429.1139.0485.2235.0993.3397.1501-.2192-.0927-.4384-.1876-.6532-.2759.1052.0441.2083.0883.3113.1324-1.9769-.8718-3.8531-1.9643-5.578-3.271.0921.0707.1863.1501.274.2208-.1863-.1435-.3726-.287-.5523-.4304.092.0706.1863.1434.2783.2096-1.6262-1.3022-3.1012-2.792-4.3834-4.4407.0109.0177.0263.0397.0394.0552-.0328-.0442-.0701-.0927-.1052-.1369.0219.0265.0439.0552.0658.0839-.0548-.0772-.1096-.1545-.1644-.2317.0833-.1148.1578-.2252.2411-.3421-.0482.0618-.0986.1258-.1491.1942.1096-.1369.2083-.2803.3179-.4194-.0548.0773-.1096.1501-.1644.2252 1.2493-1.5936 2.6849-3.0348 4.2629-4.3039-.0833.0618-.1578.1214-.2367.1809.1863-.1434.3682-.2869.5523-.4303-.1052.0838-.2148.1655-.3178.2472 1.7359-1.3199 3.6273-2.4235 5.6153-3.2997-.1052.0442-.2082.0839-.3112.1258.2192-.0927.4383-.1876.6531-.2758-.1139.0485-.2301.0993-.3463.15.2192-.0882.4428-.1765.6685-.2648-.5654 1.2029-.903 2.494-1.0126 3.858-.1709 2.1807.3836 4.4474 1.5123 6.3124 1.0784 1.7922 2.7068 3.3151 4.607 4.1892 2.1589.9866 4.493 1.2757 6.8205.799 4.1906-.8498 7.693-4.4805 8.3287-8.7511.0877-.5849.1534-1.1698.1578-1.7613 0-.0044.0044-.0176.0044-.0221 0-.0044.0044-.0176.0044-.022v-.0044c0-.0177-.0044-.0331-.0044-.0486-.011-1.5494-.3507-3.1164-1.0082-4.5246.2082.0773.4208.1589.6246.2472-.1139-.0485-.2235-.0993-.3397-.1501.2192.0927.4384.1876.6532.2759-.1052-.0441-.2082-.0883-.3113-.1324 1.977.8718 3.8575 1.971 5.5845 3.2776-.092-.0773-.1863-.1501-.2849-.2252.1863.1435.3682.287.5523.4304-.0876-.0706-.1797-.1368-.2696-.2096 1.5561 1.247 2.9699 2.6662 4.2147 4.2266-.0657-.0883-.1315-.1766-.2016-.2648.1424.1876.2849.3752.4274.5562-.0767-.0994-.1535-.1943-.2302-.2914.1096.1435.2148.2914.3178.4414-.1052.1435-.2082.287-.3112.4304.0921-.0927.1644-.1854.2367-.2781z" fill="#fff"/></svg>

<svg width="75" height="75" viewBox="0 0 75 75" fill="none" xmlns="http://www.w3.org/2000/svg">
<path d="M63.9422 36.9085C63.8874 36.6326 63.7888 36.3611 63.6353 36.114C61.5203 32.6885 58.7084 29.8061 55.434 27.5019C53.9392 26.4469 52.3327 25.5486 50.6604 24.8092C48.7274 23.9529 46.7548 23.2466 44.6945 22.7831C40.4162 21.823 36.0415 21.7634 31.7239 22.5072C29.8456 22.8339 27.9937 23.3415 26.2118 24.0301C24.3006 24.7695 22.442 25.6524 20.7062 26.7493C17.309 28.9012 14.3895 31.6932 12.0969 35.0082C11.8515 35.3658 11.6104 35.7366 11.3781 36.1052C10.874 36.9218 10.874 38.0761 11.3781 38.8906C13.4931 42.316 16.305 45.1985 19.5794 47.4981C21.0742 48.5531 22.6807 49.4514 24.353 50.1908C26.2861 51.0471 28.2586 51.7534 30.3189 52.2169C34.5972 53.177 38.9719 53.2366 43.2895 52.4928C45.1678 52.1661 47.0198 51.6585 48.8016 50.9699C50.7128 50.2305 52.5714 49.3476 54.3073 48.2507C57.7044 46.0988 60.6239 43.3068 62.9165 39.9918C63.0962 39.7269 63.2715 39.4621 63.4425 39.1928C63.4688 39.153 63.5039 39.1155 63.5258 39.078C63.6902 38.8308 63.837 38.5483 63.9093 38.2393C63.9137 38.2172 63.9137 38.1951 63.9137 38.1775C64.0211 37.7625 64.0255 37.3101 63.9422 36.9084L63.9422 36.9085ZM32.8813 29.2321C33.6593 28.4486 34.6303 27.8814 35.6757 27.5768C36.2675 27.4002 36.8855 27.3119 37.5058 27.3053C37.8083 27.3053 38.08 27.3825 38.3168 27.526C38.8033 27.8173 39.1233 28.3603 39.1496 28.9606C39.1891 29.8612 38.365 30.6116 37.5058 30.616C37.3568 30.616 37.2099 30.627 37.0675 30.6381C36.7891 30.6932 36.5152 30.7639 36.2456 30.8632C36.0308 30.9691 35.8248 31.0839 35.621 31.2163C35.5881 31.2384 35.5508 31.2649 35.5158 31.287C35.4106 31.3797 35.3075 31.4746 35.2045 31.5739C35.1059 31.6732 35.0117 31.7769 34.9196 31.8829C34.8933 31.916 34.8714 31.9535 34.8495 31.9888C34.718 32.1875 34.604 32.3971 34.4988 32.6112C34.4002 32.8827 34.3235 33.1586 34.2752 33.4456C34.2643 33.5956 34.2533 33.7369 34.2533 33.887C34.2489 34.814 33.5081 35.5026 32.6095 35.5423C31.7263 35.5821 30.9613 34.7522 30.9657 33.887C30.9789 32.1566 31.6583 30.4637 32.8813 29.2322L32.8813 29.2321ZM57.8842 37.6588C57.7417 37.8465 57.5993 38.0296 57.4568 38.215C57.5269 38.1224 57.5927 38.0341 57.665 37.9392C56.4201 39.5106 55.0021 40.9298 53.4416 42.1834C53.5336 42.1128 53.6279 42.0466 53.7199 41.9738C53.5336 42.1172 53.3473 42.2607 53.1676 42.4042C53.2597 42.3335 53.3539 42.2607 53.4416 42.1834C51.7145 43.4856 49.8428 44.5848 47.8636 45.4544C47.9688 45.4103 48.0719 45.3661 48.1749 45.322C47.9557 45.4147 47.7365 45.5096 47.5217 45.5979C47.6357 45.5493 47.7453 45.4986 47.8614 45.4478C45.7026 46.3306 43.4517 46.9442 41.1436 47.2907C41.2532 47.2797 41.3628 47.2642 41.468 47.251C41.2269 47.2841 40.9814 47.3172 40.7403 47.3503C40.8762 47.3327 41.0099 47.3106 41.1458 47.2951C38.7305 47.5865 36.2845 47.5865 33.8691 47.2951C34.005 47.3172 34.1387 47.3349 34.2746 47.3503C34.0335 47.3172 33.788 47.2841 33.5469 47.251C33.6565 47.2687 33.7617 47.2775 33.8713 47.2907C31.57 46.9486 29.3125 46.3306 27.1535 45.4478C27.2674 45.4963 27.377 45.5471 27.4932 45.5979C27.274 45.5052 27.0548 45.4103 26.84 45.322C26.9452 45.3661 27.0483 45.4103 27.1513 45.4544C25.1744 44.5826 23.2982 43.4901 21.5733 42.1834C21.6654 42.2541 21.7596 42.3335 21.8473 42.4042C21.661 42.2607 21.4747 42.1172 21.295 41.9738C21.387 42.0444 21.4813 42.1172 21.5733 42.1834C19.9471 40.8812 18.4721 39.3914 17.1899 37.7427C17.2008 37.7604 17.2162 37.7824 17.2293 37.7979C17.1965 37.7537 17.1592 37.7052 17.1241 37.661C17.146 37.6875 17.168 37.7162 17.1899 37.7449C17.1351 37.6677 17.0803 37.5904 17.0255 37.5132C17.1088 37.3984 17.1833 37.288 17.2666 37.1711C17.2184 37.2329 17.168 37.2969 17.1175 37.3653C17.2271 37.2284 17.3258 37.085 17.4354 36.9459C17.3806 37.0232 17.3258 37.096 17.271 37.1711C18.5203 35.5775 19.9559 34.1363 21.5339 32.8672C21.4506 32.929 21.3761 32.9886 21.2972 33.0481C21.4835 32.9047 21.6654 32.7612 21.8495 32.6178C21.7443 32.7016 21.6347 32.7833 21.5317 32.865C23.2676 31.5451 25.159 30.4415 27.147 29.5653C27.0418 29.6095 26.9388 29.6492 26.8358 29.6911C27.055 29.5984 27.2741 29.5035 27.4889 29.4153C27.375 29.4638 27.2588 29.5146 27.1426 29.5653C27.3618 29.4771 27.5854 29.3888 27.8111 29.3005C27.2457 30.5034 26.9081 31.7945 26.7985 33.1585C26.6276 35.3392 27.1821 37.6059 28.3108 39.4709C29.3892 41.2631 31.0176 42.786 32.9178 43.6601C35.0767 44.6467 37.4108 44.9358 39.7383 44.4591C43.9289 43.6093 47.4313 39.9786 48.067 35.708C48.1547 35.1231 48.2204 34.5382 48.2248 33.9467C48.2248 33.9423 48.2292 33.9291 48.2292 33.9246C48.2292 33.9202 48.2336 33.907 48.2336 33.9026V33.8982C48.2336 33.8805 48.2292 33.8651 48.2292 33.8496C48.2182 32.3002 47.8785 30.7332 47.221 29.325C47.4292 29.4023 47.6418 29.4839 47.8456 29.5722C47.7317 29.5237 47.6221 29.4729 47.5059 29.4221C47.7251 29.5148 47.9443 29.6097 48.1591 29.698C48.0539 29.6539 47.9509 29.6097 47.8478 29.5656C49.8248 30.4374 51.7053 31.5366 53.4323 32.8432C53.3403 32.7659 53.246 32.6931 53.1474 32.618C53.3337 32.7615 53.5156 32.905 53.6997 33.0484C53.6121 32.9778 53.52 32.9116 53.4301 32.8388C54.9862 34.0858 56.4 35.505 57.6448 37.0654C57.5791 36.9771 57.5133 36.8888 57.4432 36.8006C57.5856 36.9882 57.7281 37.1758 57.8706 37.3568C57.7939 37.2574 57.7171 37.1625 57.6404 37.0654C57.75 37.2089 57.8552 37.3568 57.9582 37.5068C57.853 37.6503 57.75 37.7938 57.647 37.9372C57.7391 37.8445 57.8114 37.7518 57.8837 37.6591L57.8842 37.6588Z" fill="white"/>
</svg>
